X: 132
T:Ashplant
M:C
L:1/8
Q:224
D:Lunas
Z:Christop
K:AMinor
|: EA, ~A,2 EDCD | EA, ~A, G,A,CD | ~E3 D EGAB | cAGE DECD :|
|: E2 AE cEAE | E2 AG EDCD | EGAB ~c3 d | cAGE DECD |
  E2 AE cEAE | E2 AG EDCD | EGAB ~c3 d | cAGE D4 :|
